assets/icons/24px/outline/photo-24px.svg

<svg width="24" height="24" viewBox="0 0 24 24" fill="none" xmlns="http://www.w3.org/2000/svg">
<path d="M21.4142 21.4142L20.7071 20.7071L21.4142 21.4142ZM2.58579 21.4142L3.29289 20.7071L2.58579 21.4142ZM21.4142 2.58579L22.1213 1.87868L21.4142 2.58579ZM6 3H18V1H6V3ZM3 18V6H1V18H3ZM18 21H6V23H18V21ZM21 6V18H23V6H21ZM18 23C18.9145 23 19.701 23.0021 20.3278 22.9179C20.9833 22.8297 21.6116 22.631 22.1213 22.1213L20.7071 20.7071C20.631 20.7832 20.495 20.8774 20.0613 20.9357C19.5988 20.9979 18.9711 21 18 21V23ZM21 18C21 18.9711 20.9979 19.5988 20.9357 20.0613C20.8774 20.495 20.7832 20.631 20.7071 20.7071L22.1213 22.1213C22.631 21.6117 22.8297 20.9833 22.9178 20.3278C23.0021 19.701 23 18.9145 23 18H21ZM1 18C1 18.9145 0.997876 19.701 1.08214 20.3278C1.17027 20.9833 1.36902 21.6117 1.87868 22.1213L3.29289 20.7071C3.21677 20.631 3.12262 20.495 3.06431 20.0613C3.00212 19.5988 3 18.9711 3 18H1ZM6 21C5.02892 21 4.40121 20.9979 3.9387 20.9357C3.50496 20.8774 3.36902 20.7832 3.29289 20.7071L1.87868 22.1213C2.38834 22.631 3.01669 22.8297 3.67221 22.9179C4.29896 23.0021 5.08546 23 6 23V21ZM18 3C18.9711 3 19.5988 3.00212 20.0613 3.06431C20.495 3.12262 20.631 3.21677 20.7071 3.29289L22.1213 1.87868C21.6116 1.36902 20.9833 1.17027 20.3278 1.08214C19.701 0.997876 18.9145 1 18 1V3ZM23 6C23 5.08546 23.0021 4.29896 22.9178 3.67221C22.8297 3.01669 22.631 2.38834 22.1213 1.87868L20.7071 3.29289C20.7832 3.36902 20.8774 3.50496 20.9357 3.9387C20.9979 4.40121 21 5.02892 21 6H23ZM6 1C5.08546 1 4.29896 0.997876 3.67221 1.08214C3.01669 1.17027 2.38834 1.36902 1.87868 1.87868L3.29289 3.29289C3.36902 3.21677 3.50496 3.12262 3.9387 3.06431C4.40121 3.00212 5.02892 3 6 3V1ZM3 6C3 5.02892 3.00212 4.40121 3.06431 3.9387C3.12262 3.50496 3.21677 3.36902 3.29289 3.29289L1.87868 1.87868C1.36902 2.38834 1.17027 3.01669 1.08214 3.67221C0.997876 4.29896 1 5.08546 1 6H3Z" fill="white"/>
<path d="M12 15.8461L9.82677 13.7289C8.49167 12.4281 7.82412 11.7778 6.99786 11.778C6.17159 11.7781 5.50434 12.4288 4.16985 13.7301L1.99997 15.8461M22 12.3297L18.8552 9.27418C17.5087 7.96587 16.8354 7.31172 16.0046 7.31625C15.1737 7.32077 14.5078 7.98222 13.1759 9.30511L9.67624 12.7814" stroke="white" stroke-width="2" stroke-linecap="round" stroke-linejoin="round"/>
</svg>

<svg width="24" height="24" fill="none" xmlns="http://www.w3.org/2000/svg"><path d="M21.414 21.414l-.707-.707.707.707zm-18.828 0l.707-.707-.707.707zM21.414 2.586l.707-.707-.707.707zM6 3h12V1H6v2zM3 18V6H1v12h2zm15 3H6v2h12v-2zm3-15v12h2V6h-2zm-3 17c.915 0 1.701.002 2.328-.082.655-.088 1.284-.287 1.793-.797l-1.414-1.414c-.076.076-.212.17-.646.229-.462.062-1.09.064-2.061.064v2zm3-5c0 .971-.002 1.599-.064 2.061-.059.434-.153.57-.229.646l1.414 1.414c.51-.51.709-1.138.797-1.793C23.002 19.7 23 18.915 23 18h-2zM1 18c0 .915-.002 1.701.082 2.328.088.655.287 1.284.797 1.793l1.414-1.414c-.076-.076-.17-.212-.229-.646C3.002 19.6 3 18.971 3 18H1zm5 3c-.971 0-1.599-.002-2.061-.064-.434-.059-.57-.153-.646-.229l-1.414 1.414c.51.51 1.138.709 1.793.797C4.3 23.002 5.085 23 6 23v-2zM18 3c.971 0 1.599.002 2.061.064.434.059.57.153.646.229l1.414-1.414c-.51-.51-1.138-.709-1.793-.797C19.7.998 18.915 1 18 1v2zm5 3c0-.915.002-1.701-.082-2.328-.088-.655-.287-1.284-.797-1.793l-1.414 1.414c.076.076.17.212.229.646C20.998 4.4 21 5.029 21 6h2zM6 1c-.915 0-1.701-.002-2.328.082-.655.088-1.284.287-1.793.797l1.414 1.414c.076-.076.212-.17.646-.229C4.4 3.002 5.029 3 6 3V1zM3 6c0-.971.002-1.599.064-2.061.059-.434.153-.57.229-.646L1.879 1.879c-.51.51-.709 1.138-.797 1.793C.998 4.3 1 5.085 1 6h2z" fill="#fff"/><path d="M12 15.846L9.827 13.73c-1.335-1.3-2.003-1.951-2.83-1.951-.825 0-1.493.65-2.827 1.952L2 15.846m20-3.516l-3.145-3.056c-1.346-1.308-2.02-1.962-2.85-1.958-.831.005-1.497.666-2.83 1.99L9.677 12.78" stroke="#fff" stroke-width="2" stroke-linecap="round" stroke-linejoin="round"/></svg>
